X: 20
T: Jig of Slurs $1(J-40)
I: Jig of Slurs	J-40	D/E Dor	jig
C: G. S. MacLellan
M: 6/8
R: jig
K: D
A| "D"Add dcd| "G"Bdd "D"Add| "G"Bdd "D"Add| "Em"Bee "A"edB|
   "D"Add dcd| "G"Bdd "D"Add| "G"Bdd "A"cde| "D"fdd d2:|
|:B| "D"Aff fef| aff fed| "Em"Bee ede| "G"fed "A"edB|
   "D"Aff fef| aff fed| "G"Bdd "A"cde| "D"fdd d2 :|
|:B| "G"Ggg gfg| "Em"age "G/D"gdB| "G"Ggg gfg| "D"age "G"g2 B|
   "G"Ggg gfg| "Em"age "G"ged| "Em"Bee efg| fed e2:|
|:G| "G"GBB Bdd| dee "Em"edB| "G"GBB Bdd| dee "Em"efg|
   "G"GBB Bdd| dee edB| "Em"Bee efg| "D"fed "Em"e2:|

